fs/presence_offline_24_regular.svg

<svg viewBox="0 0 24 24" fill="none" xmlns="http://www.w3.org/2000/svg" height="1em" width="1em">
  <path d="M16.0607 7.93934C16.6464 8.52513 16.6464 9.47487 16.0607 10.0607L14.1213 12L16.0607 13.9394C16.6464 14.5252 16.6464 15.4749 16.0607 16.0607C15.4749 16.6465 14.5251 16.6465 13.9393 16.0607L12 14.1214L10.0607 16.0607C9.47487 16.6464 8.52513 16.6464 7.93934 16.0607C7.35355 15.4749 7.35355 14.5251 7.93934 13.9393L9.87865 12L7.93934 10.0607C7.35355 9.47493 7.35355 8.52519 7.93934 7.9394C8.52513 7.35361 9.47487 7.35361 10.0607 7.9394L12 9.87871L13.9393 7.93934C14.5251 7.35355 15.4749 7.35355 16.0607 7.93934ZM0 12C0 5.37258 5.37258 0 12 0C18.6274 0 24 5.37258 24 12C24 18.6274 18.6274 24 12 24C5.37258 24 0 18.6274 0 12ZM12 3C7.02944 3 3 7.02944 3 12C3 16.9706 7.02944 21 12 21C16.9706 21 21 16.9706 21 12C21 7.02944 16.9706 3 12 3Z" fill="#212121"/>
</svg>

<svg viewBox="0 0 24 24" fill="none" xmlns="http://www.w3.org/2000/svg" height="1em" width="1em">
  <path d="M16.06 7.94a1.5 1.5 0 0 1 0 2.12L14.122 12l1.94 1.94a1.5 1.5 0 0 1-2.122 2.12L12 14.122l-1.94 1.94a1.5 1.5 0 0 1-2.12-2.122L9.878 12l-1.94-1.94a1.5 1.5 0 1 1 2.122-2.12L12 9.878l1.94-1.94a1.5 1.5 0 0 1 2.12 0ZM0 12C0 5.373 5.373 0 12 0s12 5.373 12 12-5.373 12-12 12S0 18.627 0 12Zm12-9a9 9 0 1 0 0 18 9 9 0 0 0 0-18Z" fill="#212121"/>
</svg>
